assets/svgs/crossroads-church-logo.svg

<svg width="308" height="81" viewBox="0 0 308 81" xmlns="http://www.w3.org/2000/svg"><title>crossroads-church-logo</title><path d="M211.9 52.2h3.3v10.5h.1c1.1-2.4 3.9-3.4 6.3-3.4 5.2 0 6.8 3 6.8 7.3v13H225V66.2c0-2.4-1.5-4-4-4-4 0-5.9 2.6-5.9 6.2v11.2h-3.3V52.2h.1zm-7.2 14c-.5-2.5-2.2-4-4.9-4-4.7 0-6.2 3.7-6.2 7.8 0 3.6 1.7 7.3 5.8 7.3 3.1 0 5-1.8 5.4-4.8h3.3c-.7 4.8-3.8 7.7-8.7 7.7-6.1 0-9.3-4.2-9.3-10.1 0-5.9 3.1-10.6 9.4-10.6 4.5 0 8.1 2.1 8.6 6.8h-3.4v-.1zm49.5-6.4h3.1V64h.1c1.6-3.2 3.8-4.8 7.3-4.6v3.5c-5.3 0-7.2 3-7.2 8v8.8h-3.3V59.8zm-4.8 19.8h-3.1v-3.1h-.1c-1.4 2.5-3.6 3.6-6.4 3.6-5.2 0-6.8-3-6.8-7.3v-13h3.3v13.4c0 2.4 1.5 4 4 4 4 0 5.9-2.6 5.9-6.2V59.8h3.3v19.8h-.1zm38.2-27.4h3.3v10.5h.1c1.1-2.4 3.9-3.4 6.3-3.4 5.2 0 6.8 3 6.8 7.3v13h-3.3V66.2c0-2.4-1.5-4-4-4-4 0-5.9 2.6-5.9 6.2v11.2h-3.3V52.2zm-7.2 14c-.5-2.5-2.2-4-4.9-4-4.7 0-6.2 3.7-6.2 7.8 0 3.6 1.7 7.3 5.8 7.3 3.1 0 5-1.8 5.4-4.8h3.3c-.7 4.8-3.8 7.7-8.7 7.7-6.1 0-9.3-4.2-9.3-10.1 0-5.9 3.1-10.6 9.4-10.6 4.5 0 8.1 2.1 8.6 6.8h-3.4v-.1zm7.6-45.7c0-1.6 1.4-2.2 3.6-2.2 1 0 1.9.2 2.5.8.7.5 1.1 1.3 1.2 2.3h11.4c-.7-8.4-8.8-10-15.7-10-6 0-13.6 2-14.8 8.6V.5h-12.6v15c-2.7-3.1-5.4-4.1-9.4-4.1-6.5 0-11.7 5-13 13 0-7.5-1-13-15.9-13-12.5 0-17.3 3.9-17.3 10.6h12.1c.3-2.7 2.7-3.1 4.4-3.1 1.3 0 4.1.3 4.1 2.6 0 4.7-14.5 1.5-20.2 7.4v-1.2c0-9.8-6.9-16.4-18-16.4-6.5 0-11.7 2.3-14.8 6.5v-6.3c-.5-.1-1.1-.2-1.6-.2-4.9 0-8 2.4-9.7 7.3l-.1-6.4h-11.4v17.6c-3.9-7.3-19.1-5.6-19.1-9.4 0-1.6 1.4-2.2 3.6-2.2 1 0 1.9.2 2.5.8.7.5 1.1 1.3 1.2 2.3h11.4c-.7-8.4-8.8-10-15.7-10-6.6 0-14.9 2.4-14.9 10.4 0 12.3 19.4 8.2 19.4 13.3 0 2.2-2.1 2.8-4 2.8-1.2 0-2.3-.3-3.1-1-.8-.7-1.3-1.6-1.3-2.9H123v-.3c0-11.8-20-8.9-20-13.3 0-1.6 1.4-2.2 3.6-2.2 1 0 1.9.2 2.5.8.7.5 1.1 1.3 1.2 2.3h11.4c-.7-8.4-8.8-10-15.7-10-6.6 0-15 2.4-15 10.4v.3c-2.2-6.6-8.3-10.7-17.1-10.7-6.5 0-11.7 2.3-14.8 6.5v-6.3c-.5-.1-1.1-.2-1.6-.2-4.9 0-8 2.4-9.7 7.3l-.1-6.4H36.3v19.4H23.8c-.4 2.5-1.6 4.7-4.9 4.7-3.7 0-5.5-3.1-5.5-7.9 0-3.7.8-8.6 5.5-8.6 1.4 0 2.5.4 3.2 1.3.8.8 1.3 1.9 1.3 3.3h12.7c-.9-9.4-8.9-13-17.3-13-10.4 0-18 6.2-18 17 0 10.7 7.8 16.4 18 16.4 8.4 0 15.8-3.3 17.4-12v11.1h12.5V33c0-6.8 2.6-9.2 7.7-9.2-.3 1.5-.5 3-.5 4.7 0 10.8 7.8 16.3 18 16.3 7.4 0 13.6-2.9 16.4-9 1.5 7.1 8.9 9 15.6 9 8.7 0 14-2.5 16-6.6 2.5 5.1 8.9 6.6 14.8 6.6 8.9 0 14.1-2.6 16.1-6.8v5.9h12.6V33c0-6.8 2.6-9.2 7.7-9.2-.3 1.5-.5 3-.5 4.7 0 10.8 7.8 16.3 18 16.3 6.9 0 12.8-2.5 15.8-7.8.9 5.4 5.7 7.8 11.1 7.8 4.7 0 8.3-1 11.9-4.3l.6 3.4h13v-.6c-1.6-1.3-1.7-2.2-1.7-4v-6.5c1.3 7 6 12.1 14 12.1 4 0 6.7-1.3 9.7-5.1V44h11.3v-5.6c2.6 5 8.9 6.5 14.7 6.5 11.6 0 17-4.5 17-11 0-11.9-20-9-20-13.4zM74 36.4c-3.2 0-5.4-2.6-5.4-8.6 0-3.5 1.3-8 5.6-8 3.3-.2 5.3 3.3 5.3 8-.1 6-2.1 8.6-5.5 8.6zm32.5 1.6c-1.2 0-2.3-.3-3.1-1-.8-.7-1.3-1.6-1.3-2.9h-11c.6-1.8.9-3.9.9-6.3 0-.8-.1-1.5-.1-2.2 3.6 7.7 18.6 5.1 18.6 9.6-.1 2.1-2.1 2.8-4 2.8zm84.1-1.6c-3.2 0-5.4-2.6-5.4-8.6 0-3.5 1.3-8 5.5-8 3.3-.2 5.3 3.3 5.3 8 0 6-2 8.6-5.4 8.6zm32.6 1.3c-2.5 0-4-1.1-4-2.7 0-4.1 5.4-3.1 9.5-5.1.3 4.4-1.1 7.8-5.5 7.8zm35.2-1.9c-4.1 0-4.9-3.9-4.9-7.2 0-3.5 1.1-7.5 5.3-7.5 4.2 0 5.4 3.8 5.4 7.3-.1 3.7-1.4 7.4-5.8 7.4zm33.1 2.2c-1.2 0-2.3-.3-3.1-1-.9-.7-1.3-1.6-1.3-2.9h-10.8V23.8c1.9 9.9 19.2 6.6 19.2 11.4 0 2.1-2.1 2.8-4 2.8z" fill-rule="nonzero" fill="#6D6E71"/></svg>

<?xml version="1.0" encoding="UTF-8"?>
<svg width="308px" height="81px" viewBox="0 0 308 81" version="1.1" xmlns="http://www.w3.org/2000/svg" xmlns:xlink="http://www.w3.org/1999/xlink">
    <!-- Generator: Sketch 47.1 (45422) - http://www.bohemiancoding.com/sketch -->
    <title>crossroads-church-logo</title>
    <desc>Created with Sketch.</desc>
    <defs></defs>
    <g id="Page-1" stroke="none" stroke-width="1" fill="none" fill-rule="evenodd">
        <g id="crossroads-church-logo" fill-rule="nonzero" fill="#6D6E71">
            <path d="M211.9,52.2 L215.2,52.2 L215.2,62.7 L215.3,62.7 C216.4,60.3 219.2,59.3 221.6,59.3 C226.8,59.3 228.4,62.3 228.4,66.6 L228.4,79.6 L225,79.6 L225,66.2 C225,63.8 223.5,62.2 221,62.2 C217,62.2 215.1,64.8 215.1,68.4 L215.1,79.6 L211.8,79.6 L211.8,52.2 L211.9,52.2 Z M204.7,66.2 C204.2,63.7 202.5,62.2 199.8,62.2 C195.1,62.2 193.6,65.9 193.6,70 C193.6,73.6 195.3,77.3 199.4,77.3 C202.5,77.3 204.4,75.5 204.8,72.5 L208.1,72.5 C207.4,77.3 204.3,80.2 199.4,80.2 C193.3,80.2 190.1,76 190.1,70.1 C190.1,64.2 193.2,59.5 199.5,59.5 C204,59.5 207.6,61.6 208.1,66.3 L204.7,66.3 L204.7,66.2 Z M254.2,59.8 L257.3,59.8 L257.3,64 L257.4,64 C259,60.8 261.2,59.2 264.7,59.4 L264.7,62.9 C259.4,62.9 257.5,65.9 257.5,70.9 L257.5,79.7 L254.2,79.7 L254.2,59.8 L254.2,59.8 Z M249.4,79.6 L246.3,79.6 L246.3,76.5 L246.2,76.5 C244.8,79 242.6,80.1 239.8,80.1 C234.6,80.1 233,77.1 233,72.8 L233,59.8 L236.3,59.8 L236.3,73.2 C236.3,75.6 237.8,77.2 240.3,77.2 C244.3,77.2 246.2,74.6 246.2,71 L246.2,59.8 L249.5,59.8 L249.5,79.6 L249.4,79.6 Z M287.6,52.2 L290.9,52.2 L290.9,62.7 L291,62.7 C292.1,60.3 294.9,59.3 297.3,59.3 C302.5,59.3 304.1,62.3 304.1,66.6 L304.1,79.6 L300.8,79.6 L300.8,66.2 C300.8,63.8 299.3,62.2 296.8,62.2 C292.8,62.2 290.9,64.8 290.9,68.4 L290.9,79.6 L287.6,79.6 L287.6,52.2 L287.6,52.2 Z M280.4,66.2 C279.9,63.7 278.2,62.2 275.5,62.2 C270.8,62.2 269.3,65.9 269.3,70 C269.3,73.6 271,77.3 275.1,77.3 C278.2,77.3 280.1,75.5 280.5,72.5 L283.8,72.5 C283.1,77.3 280,80.2 275.1,80.2 C269,80.2 265.8,76 265.8,70.1 C265.8,64.2 268.9,59.5 275.2,59.5 C279.7,59.5 283.3,61.6 283.8,66.3 L280.4,66.3 L280.4,66.2 Z M288,20.5 C288,18.9 289.4,18.3 291.6,18.3 C292.6,18.3 293.5,18.5 294.1,19.1 C294.8,19.6 295.2,20.4 295.3,21.4 L306.7,21.4 C306,13 297.9,11.4 291,11.4 C285,11.4 277.4,13.4 276.2,20 L276.2,0.5 L263.6,0.5 L263.6,15.5 C260.9,12.4 258.2,11.4 254.2,11.4 C247.7,11.4 242.5,16.4 241.2,24.4 C241.2,16.9 240.2,11.4 225.3,11.4 C212.8,11.4 208,15.3 208,22 L220.1,22 C220.4,19.3 222.8,18.9 224.5,18.9 C225.8,18.9 228.6,19.2 228.6,21.5 C228.6,26.2 214.1,23 208.4,28.9 C208.4,28.5 208.4,28.1 208.4,27.7 C208.4,17.9 201.5,11.3 190.4,11.3 C183.9,11.3 178.7,13.6 175.6,17.8 L175.6,11.5 C175.1,11.4 174.5,11.3 174,11.3 C169.1,11.3 166,13.7 164.3,18.6 L164.2,12.2 L152.8,12.2 L152.8,29.8 C148.9,22.5 133.7,24.2 133.7,20.4 C133.7,18.8 135.1,18.2 137.3,18.2 C138.3,18.2 139.2,18.4 139.8,19 C140.5,19.5 140.9,20.3 141,21.3 L152.4,21.3 C151.7,12.9 143.6,11.3 136.7,11.3 C130.1,11.3 121.8,13.7 121.8,21.7 C121.8,34 141.2,29.9 141.2,35 C141.2,37.2 139.1,37.8 137.2,37.8 C136,37.8 134.9,37.5 134.1,36.8 C133.3,36.1 132.8,35.2 132.8,33.9 L123,33.9 C123,33.8 123,33.7 123,33.6 C123,21.8 103,24.7 103,20.3 C103,18.7 104.4,18.1 106.6,18.1 C107.6,18.1 108.5,18.3 109.1,18.9 C109.8,19.4 110.2,20.2 110.3,21.2 L121.7,21.2 C121,12.8 112.9,11.2 106,11.2 C99.4,11.2 91,13.6 91,21.6 C91,21.7 91,21.8 91,21.9 C88.8,15.3 82.7,11.2 73.9,11.2 C67.4,11.2 62.2,13.5 59.1,17.7 L59.1,11.4 C58.6,11.3 58,11.2 57.5,11.2 C52.6,11.2 49.5,13.6 47.8,18.5 L47.7,12.1 L36.3,12.1 L36.3,31.5 L23.8,31.5 C23.4,34 22.2,36.2 18.9,36.2 C15.2,36.2 13.4,33.1 13.4,28.3 C13.4,24.6 14.2,19.7 18.9,19.7 C20.3,19.7 21.4,20.1 22.1,21 C22.9,21.8 23.4,22.9 23.4,24.3 L36.1,24.3 C35.2,14.9 27.2,11.3 18.8,11.3 C8.4,11.3 0.8,17.5 0.8,28.3 C0.8,39 8.6,44.7 18.8,44.7 C27.2,44.7 34.6,41.4 36.2,32.7 L36.2,43.8 L48.7,43.8 L48.7,33 C48.7,26.2 51.3,23.8 56.4,23.8 C56.1,25.3 55.9,26.8 55.9,28.5 C55.9,39.3 63.7,44.8 73.9,44.8 C81.3,44.8 87.5,41.9 90.3,35.8 C91.8,42.9 99.2,44.8 105.9,44.8 C114.6,44.8 119.9,42.3 121.9,38.2 C124.4,43.3 130.8,44.8 136.7,44.8 C145.6,44.8 150.8,42.2 152.8,38 L152.8,43.9 L165.4,43.9 L165.4,33 C165.4,26.2 168,23.8 173.1,23.8 C172.8,25.3 172.6,26.8 172.6,28.5 C172.6,39.3 180.4,44.8 190.6,44.8 C197.5,44.8 203.4,42.3 206.4,37 C207.3,42.4 212.1,44.8 217.5,44.8 C222.2,44.8 225.8,43.8 229.4,40.5 L230,43.9 L243,43.9 L243,43.3 C241.4,42 241.3,41.1 241.3,39.3 L241.3,32.8 C242.6,39.8 247.3,44.9 255.3,44.9 C259.3,44.9 262,43.6 265,39.8 L265,44 L276.3,44 L276.3,38.4 C278.9,43.4 285.2,44.9 291,44.9 C302.6,44.9 308,40.4 308,33.9 C308,22 288,24.9 288,20.5 Z M74,36.4 C70.8,36.4 68.6,33.8 68.6,27.8 C68.6,24.3 69.9,19.8 74.2,19.8 C77.5,19.6 79.5,23.1 79.5,27.8 C79.4,33.8 77.4,36.4 74,36.4 Z M106.5,38 C105.3,38 104.2,37.7 103.4,37 C102.6,36.3 102.1,35.4 102.1,34.1 L91.1,34.1 C91.7,32.3 92,30.2 92,27.8 C92,27 91.9,26.3 91.9,25.6 C95.5,33.3 110.5,30.7 110.5,35.2 C110.4,37.3 108.4,38 106.5,38 Z M190.6,36.4 C187.4,36.4 185.2,33.8 185.2,27.8 C185.2,24.3 186.5,19.8 190.7,19.8 C194,19.6 196,23.1 196,27.8 C196,33.8 194,36.4 190.6,36.4 Z M223.2,37.7 C220.7,37.7 219.2,36.6 219.2,35 C219.2,30.9 224.6,31.9 228.7,29.9 C229,34.3 227.6,37.7 223.2,37.7 Z M258.4,35.8 C254.3,35.8 253.5,31.9 253.5,28.6 C253.5,25.1 254.6,21.1 258.8,21.1 C263,21.1 264.2,24.9 264.2,28.4 C264.1,32.1 262.8,35.8 258.4,35.8 Z M291.5,38 C290.3,38 289.2,37.7 288.4,37 C287.5,36.3 287.1,35.4 287.1,34.1 L276.3,34.1 L276.3,23.8 C278.2,33.7 295.5,30.4 295.5,35.2 C295.5,37.3 293.4,38 291.5,38 Z" id="Shape"></path>
        </g>
    </g>
</svg>
